assets/bank-tab/Asset/Smart Wealth.svg

<svg width="32" height="32" viewBox="0 0 32 32" fill="none" xmlns="http://www.w3.org/2000/svg">
<g clip-path="url(#clip0_5371_1180)">
<mask id="mask0_5371_1180" style="mask-type:luminance" maskUnits="userSpaceOnUse" x="0" y="0" width="32" height="32">
<path d="M32 0H0V32H32V0Z" fill="white"/>
</mask>
<g mask="url(#mask0_5371_1180)">
<path d="M28 5.5H4V9.90781H28V5.5Z" fill="white"/>
<path d="M27.7311 5.77441H4.29395V9.64088H27.7311V5.77441Z" fill="#104A7B"/>
<path d="M27.7306 5.77454H8.20105V9.64101H27.7306V5.77454Z" fill="#1B4581"/>
<path d="M9.44263 8.62209V6.79309H10.0494V7.40981H10.6203V6.79309H11.2294V8.62209H10.6203V7.91168H10.0494V8.62209H9.44263Z" fill="white"/>
<path d="M12.1915 7.24649C12.5483 7.21458 12.7986 7.2963 12.7799 7.69218C12.8018 8.08246 12.5451 8.20205 12.1915 8.16696V7.24649ZM12.4259 8.62218C13.4053 8.77368 13.7354 7.27755 12.9349 6.88093C12.6563 6.73658 11.9156 6.80996 11.5967 6.79321V8.62218H12.4259Z" fill="white"/>
<path d="M13.6562 8.62209V6.79309H15.0966V7.24397H14.2559V7.53737H14.9281V7.9759H14.2558V8.62253H13.6562V8.62209Z" fill="white"/>
<path d="M17.133 7.49229H16.5593C16.4668 6.96967 15.7899 7.2212 15.8828 7.72507C15.7816 8.22101 16.4971 8.4282 16.5621 7.90926H17.1465C17.0632 9.04617 15.1772 8.8357 15.2777 7.7151C15.1724 6.59613 17.0365 6.34857 17.133 7.49229Z" fill="white"/>
<path d="M19.0806 7.20382C19.2824 7.16944 19.4645 7.323 19.313 7.48166C19.246 7.54747 18.9897 7.52157 18.8865 7.52635V7.20382H19.0806ZM19.2325 8.62219C19.8755 8.74094 20.357 7.93213 19.6905 7.64913C19.9999 7.48038 20.0142 7.06032 19.7204 6.89047C19.4848 6.72744 18.6034 6.81313 18.2988 6.79322V8.62219H19.2325ZM19.1352 7.856C19.5295 7.80894 19.5243 8.24707 19.1352 8.20363H18.8869V7.856H19.1352Z" fill="white"/>
<path d="M21.3359 8.00697H20.9492L21.1402 7.34081L21.3359 8.00697ZM20.7678 8.62209L20.8372 8.38128H21.4427L21.5137 8.62209H22.118L21.4555 6.79309H20.8372L20.1747 8.62209H20.7678Z" fill="white"/>
<path d="M22.3739 8.62209V6.79309H22.94L23.5787 7.77218V6.79309H24.1599V8.62209H23.5827L22.9568 7.66612V8.62209H22.3739Z" fill="white"/>
<path d="M24.5665 8.62209V6.79309H25.1546V7.39622L25.7054 6.79309H26.419L25.7409 7.48L26.4888 8.62253H25.7609L25.3168 7.89418L25.1543 8.05125V8.62212L24.5665 8.62209Z" fill="white"/>
<path d="M8.20145 5.77441H4.29395V9.64088H8.20145V5.77441Z" fill="#DF2228"/>
<path d="M7.51684 6.45093H4.97668V8.9644H7.51684V6.45093Z" fill="white"/>
<path d="M6.44323 5.77441H6.05176V9.64088H6.44323V5.77441Z" fill="white"/>
<path d="M8.20145 7.51318H4.29395V7.90065H8.20145V7.51318Z" fill="white"/>
<path d="M6.83366 7.12769H5.66125V8.28694H6.83366V7.12769Z" fill="#1B4581"/>
<path d="M5.16984 14.9934C5.16984 15.6775 5.70269 15.9438 6.30762 15.9438C6.70359 15.9438 7.30853 15.8286 7.30853 15.303C7.30853 14.7485 6.53803 14.6548 5.78203 14.4533C5.01878 14.2516 4.24825 13.9564 4.24825 12.9914C4.24825 11.94 5.242 11.436 6.1709 11.436C7.24387 11.436 8.23028 11.9041 8.23028 13.0923H7.13562C7.0995 12.4732 6.66031 12.3148 6.12037 12.3148C5.76034 12.3148 5.34275 12.4661 5.34275 12.8982C5.34275 13.2941 5.5875 13.3446 6.87653 13.6758C7.2509 13.7695 8.40306 14.007 8.40306 15.1736C8.40306 16.1169 7.6614 16.8226 6.26434 16.8226C5.12656 16.8226 4.06081 16.2609 4.07534 14.9936H5.16984V14.9934Z" fill="#E20E18"/>
<path d="M8.9943 12.9769H9.95927V13.4809H9.97361C10.2401 13.0993 10.6289 12.876 11.1114 12.876C11.5795 12.876 11.9971 13.0488 12.1987 13.4953C12.4148 13.1712 12.8035 12.876 13.322 12.876C14.1141 12.876 14.683 13.2432 14.683 14.2082V16.6997H13.6605V14.59C13.6605 14.0931 13.6172 13.6828 13.0339 13.6828C12.4579 13.6828 12.3498 14.158 12.3498 14.6261V16.7H11.3273V14.6116C11.3273 14.1795 11.3561 13.6828 10.708 13.6828C10.5063 13.6828 10.0166 13.8124 10.0166 14.5397V16.6999H8.99414V12.9769H8.9943Z" fill="#E20E18"/>
<path d="M15.4455 14.1221C15.5031 13.1644 16.36 12.8765 17.1953 12.8765C17.937 12.8765 18.8297 13.0421 18.8297 13.9349V15.8719C18.8297 16.2104 18.8657 16.5488 18.9594 16.7001H17.9225C17.884 16.5834 17.8598 16.4625 17.8504 16.34C17.5263 16.6784 17.0512 16.8008 16.5975 16.8008C15.8918 16.8008 15.3301 16.448 15.3301 15.6846C15.3301 14.842 15.9637 14.6405 16.5975 14.5541C17.224 14.4603 17.8072 14.482 17.8072 14.0644C17.8072 13.6252 17.5047 13.5604 17.1447 13.5604C16.7558 13.5604 16.5038 13.7189 16.4679 14.1222L15.4455 14.1221ZM17.8074 14.8781C17.6345 15.0293 17.2745 15.0364 16.9577 15.0942C16.6409 15.159 16.3528 15.267 16.3528 15.6414C16.3528 16.023 16.648 16.1167 16.9793 16.1167C17.7785 16.1167 17.8074 15.4831 17.8074 15.2597L17.8074 14.8781Z" fill="#E20E18"/>
<path d="M19.6224 12.9771H20.5942V13.6685H20.6086C20.7958 13.2004 21.2999 12.8763 21.7967 12.8763C21.8725 12.8772 21.9478 12.8893 22.02 12.9123V13.8627C21.8991 13.8387 21.776 13.8266 21.6527 13.8268C20.9039 13.8268 20.6446 14.3669 20.6446 15.0222V16.6999H19.6221V12.9771H19.6224Z" fill="#E20E18"/>
<path d="M23.7199 12.977H24.4688V13.6611H23.7199V15.5045C23.7199 15.8502 23.8064 15.9366 24.152 15.9366C24.2583 15.9377 24.3645 15.928 24.4688 15.9077V16.7069C24.2708 16.7342 24.071 16.7462 23.8712 16.7429C23.2447 16.7429 22.6975 16.5989 22.6975 15.8571V13.6611H22.0781V12.977H22.6974V11.8608H23.7199V12.977Z" fill="#E20E18"/>
<path d="M4 22.936H5.43347C5.563 23.4115 5.68997 23.8776 5.81691 24.3438C5.82534 24.3441 5.83378 24.3447 5.84225 24.345L6.74762 21.4126H7.98612C8.29119 22.3878 8.59769 23.3679 8.91197 24.3723C9.39656 22.6756 9.87272 21.0084 10.3529 19.3268C10.2409 19.2827 10.1326 19.2402 9.98259 19.1811L11.6986 17.84C11.8305 18.5275 11.9556 19.179 12.0872 19.8655C11.9341 19.8254 11.8122 19.7934 11.6638 19.7546C10.9767 21.9767 10.2901 24.1969 9.60403 26.4152H8.30806C7.99866 25.4406 7.68841 24.4632 7.37734 23.4832L7.34422 23.4783C7.03416 24.4537 6.72406 25.4292 6.41141 26.413H5.114C4.74434 25.2549 4.3445 24.0934 4 22.936Z" fill="#174983"/>
<path d="M14.6564 25.1441V26.3963H10.4011C10.5328 25.9677 10.6587 25.5578 10.7821 25.1555C10.9248 25.0935 14.4738 25.0845 14.6564 25.1441Z" fill="#174983"/>
<path d="M11.2247 23.7523C11.3533 23.3281 11.4779 22.9171 11.6053 22.4965H14.6553V23.7431C14.525 23.7922 11.4588 23.8052 11.2247 23.7523Z" fill="#174983"/>
<path d="M14.6554 19.8624V21.1196H12.0344C12.1661 20.6936 12.2927 20.2844 12.423 19.8625L14.6554 19.8624Z" fill="#174983"/>
<path d="M15.5837 23.7423C15.6431 22.7564 16.5251 22.46 17.385 22.46C18.1485 22.46 19.0677 22.6304 19.0677 23.5496V25.5436C19.0677 25.8921 19.1048 26.2405 19.2012 26.3961H18.1336C18.0941 26.276 18.0692 26.1516 18.0594 26.0255C17.7258 26.3739 17.2367 26.4999 16.7696 26.4999C16.0431 26.4999 15.4648 26.1367 15.4648 25.3508C15.4648 24.4834 16.1171 24.2758 16.7696 24.1869C17.4146 24.0905 18.0149 24.1128 18.0149 23.6829C18.0149 23.2308 17.7035 23.1641 17.3329 23.1641C16.9326 23.1641 16.6732 23.3273 16.6361 23.7423L15.5837 23.7423ZM18.0149 24.5207C17.837 24.6765 17.4664 24.6837 17.1402 24.7432C16.8141 24.8099 16.5175 24.9211 16.5175 25.3065C16.5175 25.6993 16.8214 25.7958 17.1625 25.7958C17.9852 25.7958 18.0149 25.1434 18.0149 24.9136V24.5207Z" fill="#174983"/>
<path d="M19.9121 21.1035H20.9647V26.3963H19.9121V21.1035Z" fill="#174983"/>
<path d="M23.1296 22.5638H23.9005V23.2681H23.1296V25.1657C23.1296 25.5215 23.2185 25.6106 23.5744 25.6106C23.6838 25.6117 23.7931 25.6017 23.9005 25.5808V26.4036C23.6967 26.4316 23.491 26.444 23.2853 26.4406C22.6403 26.4406 22.077 26.2924 22.077 25.5287V23.2678H21.4395V22.5636H22.077V21.4144H23.1296V22.5638Z" fill="#174983"/>
<path d="M24.4043 21.1035H25.4568V23.0975H25.4791C25.5975 22.9062 25.762 22.7476 25.9575 22.6362C26.1531 22.5249 26.3734 22.4643 26.5984 22.46C27.7177 22.46 27.9994 23.0901 27.9994 24.039V26.3962H26.9468V24.2317C26.9468 23.6016 26.7615 23.2903 26.2722 23.2903C25.7014 23.2903 25.4568 23.609 25.4568 24.3874V26.3962H24.4043V21.1035Z" fill="#174983"/>
</g>
</g>
<defs>
<clipPath id="clip0_5371_1180">
<rect width="32" height="32" rx="2" fill="white"/>
</clipPath>
</defs>
</svg>

<svg xmlns="http://www.w3.org/2000/svg" width="32" height="32" fill="none" viewBox="0 0 32 32"><g clip-path="url(#a)"><mask id="b" width="32" height="32" x="0" y="0" maskUnits="userSpaceOnUse" style="mask-type:luminance"><path fill="#fff" d="M32 0H0v32h32z"/></mask><g mask="url(#b)"><path fill="#fff" d="M28 5.5H4v4.408h24z"/><path fill="#104a7b" d="M27.731 5.774H4.294v3.867H27.73z"/><path fill="#1b4581" d="M27.73 5.775H8.202V9.64h19.53z"/><path fill="#fff" d="M9.443 8.622V6.793h.606v.617h.571v-.617h.61v1.83h-.61v-.711h-.57v.71zm2.749-1.376c.356-.031.607.05.588.446.022.39-.235.51-.588.475zm.234 1.376c.98.152 1.31-1.344.509-1.741-.279-.144-1.02-.071-1.338-.088v1.83zm1.23 0V6.793h1.44v.451h-.84v.293h.672v.439h-.672v.647zm3.477-1.13h-.574c-.092-.522-.77-.27-.676.233-.101.496.614.703.68.184h.584c-.084 1.137-1.97.927-1.87-.194-.105-1.119 1.76-1.366 1.856-.223m1.947-.288c.202-.035.385.119.233.278-.067.065-.323.04-.426.044v-.322zm.153 1.418c.642.119 1.124-.69.457-.973.31-.169.324-.589.03-.759-.235-.163-1.117-.077-1.421-.097v1.83zm-.098-.766c.394-.047.39.391 0 .348h-.248v-.348zm2.201.151h-.387l.191-.666zm-.568.615.07-.24h.605l.07.24h.605l-.662-1.829h-.619l-.662 1.83zm1.606 0V6.793h.566l.639.98v-.98h.58v1.83h-.576l-.626-.957v.956zm2.193 0V6.793h.588v.603l.55-.603h.714l-.678.687.748 1.143h-.728l-.444-.729-.163.157v.571z"/><path fill="#df2228" d="M8.201 5.774H4.294v3.867H8.2z"/><path fill="#fff" d="M7.517 6.45h-2.54v2.514h2.54z"/><path fill="#fff" d="M6.443 5.774h-.391v3.867h.391z"/><path fill="#fff" d="M8.201 7.513H4.294v.388H8.2z"/><path fill="#1b4581" d="M6.834 7.128H5.66v1.159h1.173z"/><path fill="#e20e18" d="M5.17 14.993c0 .684.533.95 1.138.95.396 0 1-.114 1-.64 0-.555-.77-.648-1.526-.85-.763-.201-1.534-.497-1.534-1.462 0-1.051.994-1.555 1.923-1.555 1.073 0 2.06.468 2.06 1.656H7.135c-.037-.619-.476-.777-1.016-.777-.36 0-.777.151-.777.583 0 .396.245.447 1.534.778.374.094 1.526.331 1.526 1.498 0 .943-.742 1.649-2.139 1.649-1.137 0-2.203-.562-2.189-1.83zm3.824-2.016h.965v.504h.015a1.35 1.35 0 0 1 1.137-.605c.468 0 .886.173 1.088.62a1.35 1.35 0 0 1 1.123-.62c.792 0 1.361.367 1.361 1.332V16.7h-1.022v-2.11c0-.497-.044-.907-.627-.907-.576 0-.684.475-.684.943V16.7h-1.023v-2.088c0-.432.03-.93-.619-.93-.202 0-.691.13-.691.858v2.16H8.994zm6.452 1.145c.057-.958.914-1.245 1.75-1.245.741 0 1.634.165 1.634 1.058v1.937c0 .338.036.677.13.828h-1.038a1.5 1.5 0 0 1-.072-.36c-.324.338-.799.46-1.253.46-.705 0-1.267-.352-1.267-1.115 0-.843.634-1.045 1.268-1.13.626-.095 1.21-.073 1.21-.49 0-.44-.303-.505-.663-.505-.39 0-.641.159-.677.562zm2.361.756c-.172.151-.532.158-.85.216-.316.065-.604.173-.604.547 0 .382.295.476.626.476.8 0 .828-.634.828-.857zm1.815-1.901h.972v.691h.015c.187-.468.69-.792 1.188-.792q.113.002.223.036v.95a2 2 0 0 0-.367-.035c-.75 0-1.008.54-1.008 1.195V16.7h-1.023zm4.098 0h.749v.684h-.75v1.844c0 .345.087.432.433.432q.16 0 .317-.03v.8q-.298.041-.598.036c-.626 0-1.173-.144-1.173-.886v-2.196h-.62v-.684h.62v-1.116h1.022z"/><path fill="#174983" d="M4 22.936h1.433l.384 1.408.025.001.906-2.932h1.238l.926 2.96 1.44-5.046-.37-.146L11.7 17.84l.388 2.026-.423-.111-2.06 6.66H8.308q-.465-1.461-.93-2.932l-.034-.005-.933 2.935H5.114c-.37-1.158-.77-2.32-1.114-3.477m10.656 2.208v1.252h-4.255l.381-1.24c.143-.062 3.692-.072 3.874-.012m-3.431-1.392.38-1.255h3.05v1.246c-.13.05-3.196.062-3.43.01m3.43-3.891v1.258h-2.62l.388-1.258zm.929 3.88c.06-.986.941-1.282 1.801-1.282.763 0 1.683.17 1.683 1.09v1.994c0 .348.037.697.133.852h-1.067a1.6 1.6 0 0 1-.075-.37c-.333.348-.822.474-1.29.474-.726 0-1.304-.363-1.304-1.15 0-.867.652-1.074 1.305-1.163.645-.097 1.245-.074 1.245-.504 0-.452-.312-.519-.682-.519-.4 0-.66.163-.697.578zm2.43.779c-.177.155-.548.163-.874.222-.326.067-.623.178-.623.564 0 .392.304.489.646.489.822 0 .852-.653.852-.882zm1.898-3.417h1.053v5.292h-1.053zm3.218 1.46h.77v.704h-.77v1.898c0 .355.088.445.444.445q.166 0 .326-.03v.823a4 4 0 0 1-.615.037c-.645 0-1.208-.149-1.208-.912v-2.261h-.638v-.704h.638v-1.15h1.053zm1.274-1.46h1.053v1.994h.022a1.35 1.35 0 0 1 1.12-.638c1.119 0 1.4.63 1.4 1.579v2.357h-1.052v-2.164c0-.63-.185-.942-.675-.942-.57 0-.815.319-.815 1.097v2.01h-1.053z"/></g></g><defs><clipPath id="a"><rect width="32" height="32" fill="#fff" rx="2"/></clipPath></defs></svg>
